Newaita-dark/actions/scalable/tools-media-optical-copy.svg

<?xml version="1.0" encoding="UTF-8"?>
<svg xmlns="http://www.w3.org/2000/svg" xmlns:xlink="http://www.w3.org/1999/xlink" width="512pt" height="512pt" viewBox="0 0 512 512" version="1.1">
<g id="surface1">
<path style=" stroke:none;fill-rule:nonzero;fill:rgb(74.117649%,74.117649%,74.117649%);fill-opacity:1;" d="M 254.023438 25.167969 C 125.023438 25.167969 21.167969 129.023438 21.167969 258.023438 L 52.921875 258.023438 C 52.921875 146.613281 142.613281 56.921875 254.023438 56.921875 C 365.433594 56.921875 455.125 146.613281 455.125 258.023438 C 455.125 369.433594 365.433594 459.125 254.023438 459.125 L 254.023438 490.878906 C 383.027344 490.878906 486.878906 387.027344 486.878906 258.023438 C 486.878906 129.023438 383.027344 25.167969 254.023438 25.167969 Z M 254.023438 25.167969 "/>
<path style=" stroke:none;fill-rule:nonzero;fill:rgb(74.117649%,74.117649%,74.117649%);fill-opacity:1;" d="M 254.023438 67.507812 L 254.023438 173.351562 C 300.933594 173.351562 338.699219 211.113281 338.699219 258.023438 L 444.542969 258.023438 C 444.542969 152.476562 359.570312 67.507812 254.023438 67.507812 Z M 254.023438 67.507812 "/>
<path style=" stroke:none;fill-rule:nonzero;fill:rgb(47.058824%,56.470591%,61.176473%);fill-opacity:1;" d="M 254.023438 173.351562 C 207.113281 173.351562 169.347656 211.113281 169.347656 258.023438 L 211.6875 258.023438 C 211.6875 234.570312 230.570312 215.6875 254.023438 215.6875 C 277.480469 215.6875 296.363281 234.570312 296.363281 258.023438 C 296.363281 281.480469 277.480469 300.363281 254.023438 300.363281 L 254.023438 342.699219 C 300.933594 342.699219 338.699219 304.933594 338.699219 258.023438 C 338.699219 211.113281 300.933594 173.351562 254.023438 173.351562 Z M 254.023438 173.351562 "/>
<path style=" stroke:none;fill-rule:nonzero;fill:rgb(14.901961%,77.64706%,85.490197%);fill-opacity:1;" d="M 127.011719 279.191406 C 68.375 279.191406 21.167969 326.398438 21.167969 385.035156 C 21.167969 443.671875 68.375 490.878906 127.011719 490.878906 C 185.648438 490.878906 232.855469 443.671875 232.855469 385.035156 C 232.855469 326.398438 185.648438 279.191406 127.011719 279.191406 Z M 127.011719 321.53125 C 162.195312 321.53125 190.519531 349.855469 190.519531 385.035156 C 190.519531 420.21875 162.195312 448.542969 127.011719 448.542969 C 91.828125 448.542969 63.507812 420.21875 63.507812 385.035156 C 63.507812 349.855469 91.828125 321.53125 127.011719 321.53125 Z M 127.011719 321.53125 "/>
<path style=" stroke:none;fill-rule:nonzero;fill:rgb(14.901961%,77.64706%,85.490197%);fill-opacity:1;" d="M 127.011719 363.867188 C 138.703125 363.867188 148.179688 373.34375 148.179688 385.035156 C 148.179688 396.726562 138.703125 406.207031 127.011719 406.207031 C 115.320312 406.207031 105.84375 396.726562 105.84375 385.035156 C 105.84375 373.34375 115.320312 363.867188 127.011719 363.867188 Z M 127.011719 363.867188 "/>
</g>
</svg>

<svg xmlns="http://www.w3.org/2000/svg" width="512pt" height="512pt" viewBox="0 0 512 512"><path d="M254.023 25.168c-129 0-232.855 103.855-232.855 232.855h31.754c0-111.41 89.691-201.101 201.101-201.101s201.102 89.691 201.102 201.101-89.691 201.102-201.102 201.102v31.754c129.004 0 232.856-103.852 232.856-232.856 0-129-103.852-232.855-232.856-232.855zm0 0" fill="#bdbdbd"/><path d="M254.023 67.508v105.844c46.91 0 84.676 37.761 84.676 84.671h105.844c0-105.546-84.973-190.515-190.52-190.515zm0 0" fill="#bdbdbd"/><path d="M254.023 173.352c-46.91 0-84.675 37.761-84.675 84.671h42.34c0-23.453 18.882-42.336 42.335-42.336 23.457 0 42.34 18.883 42.34 42.336 0 23.457-18.883 42.34-42.34 42.34V342.7c46.91 0 84.676-37.765 84.676-84.676 0-46.91-37.765-84.671-84.676-84.671zm0 0" fill="#78909c"/><path d="M127.012 279.191c-58.637 0-105.844 47.207-105.844 105.844 0 58.637 47.207 105.844 105.844 105.844 58.636 0 105.843-47.207 105.843-105.844 0-58.637-47.207-105.844-105.843-105.844zm0 42.34c35.183 0 63.508 28.324 63.508 63.504 0 35.184-28.325 63.508-63.508 63.508-35.184 0-63.504-28.324-63.504-63.508 0-35.18 28.32-63.504 63.504-63.504zm0 0" fill="#26c6da"/><path d="M127.012 363.867c11.691 0 21.168 9.477 21.168 21.168 0 11.692-9.477 21.172-21.168 21.172-11.692 0-21.168-9.48-21.168-21.172 0-11.691 9.476-21.168 21.168-21.168zm0 0" fill="#26c6da"/></svg>
